X: 3
T: Paddy Fahey's
R: jig
M: 6/8
L: 1/8
K: Dmix
|: DFA d2 e | dcA GFG | ADD c3 | edc BcA |
DFA d2 e | dcA GFG | ABG A2 G |[1 FDD D2 A :|[2 FDD DFA ||
|: d^cd fed | ^cA^G A2 B | cBc edc | B/c/dG GFG |
d2 d fed | cAG EFG | ABG A2 G |[1 F/G/FD DFA :|[2 FDD D3 |]


Tune 124	Setting 28398

